X:39
T:Jigg, A
M:6/4
L:1/4
Q:3/4=85
S:D.Wright, Extraordinary Collection, London 1713
N:strain 1, bar 1 as printd: might better be read f>ed e/f/gc :bar 5
N:strain 2 has only 5 beats-note 3 (g) added here
Z:Pete Stewart, 2004 <www.hornpipemusic.co.uk>
K:G
g | f>ede/f/cg | B>AGF2G | A3D2G | E>DCB,CD | G/A/BB,A,2F | G3G,2 ||
D | B,>CDEFG | E>DCB,CD | A,3A2B | c>Bce>dc | e/f/gBA2f | g3G2 |

